X: 41
M: none
L: 1/8
K: D
(ue |\
kf2)vd(uf af)d(uf | ke2)c(ue ge)c(ue | kf2)d(uf af)d(uf | eg)fe vfud-d2 :|
|: (vB |\
kA)(uGFG) [A2D2][AD](vB | kA)GFE k[A2E2]k[A2E2] | DEFG kA(G[A2F2]) | vA(ugfe) vf(d-d2 :|
to da men dats on duty on deck.  Sometimes een would oag in
quietly whin da officer wisna lookin an mak a cup o' tae.


